public/logos/footer-logo.svg

<svg fill="none" height="42" viewBox="0 0 95 42" width="95" xmlns="http://www.w3.org/2000/svg"><g fill="#030c0c"><path d="m48.149 41.6292c-3.0715 0-5.7827-.5499-8.1337-1.6495-2.351-1.0997-4.1901-2.6734-5.5173-4.721-1.3271-2.0477-1.9907-4.5124-1.9907-7.3943v-.2829c0-.7233.5864-1.3097 1.3097-1.3097h4.7748c.7234 0 1.3098.5864 1.3098 1.3097v.2829c0 2.3889.7394 4.1901 2.2182 5.4035 1.4789 1.1755 3.4886 1.7633 6.0292 1.7633 2.5785 0 4.4935-.5119 5.7448-1.5358 1.2893-1.0238 1.9339-2.332 1.9339-3.9246 0-1.0997-.3223-1.9908-.967-2.6733-.6067-.6826-1.5167-1.2324-2.7302-1.6495-1.1755-.4551-2.6164-.8722-4.3228-1.2514l-1.3082-.2844c-2.7302-.6067-5.0812-1.3651-7.053-2.2751-1.9339-.948-3.4317-2.1804-4.4934-3.6972-1.0239-1.5167-1.5358-3.4885-1.5358-5.9154 0-2.42682.5688-4.49342 1.7064-6.1998 1.1755-1.74429 2.806-3.07146 4.8916-3.98153 2.1235-.947985 4.6072-1.421979 7.4512-1.421979 2.8439 0 5.3656.492954 7.5649 1.478859 2.2372.94798 3.9815 2.38892 5.2328 4.32281 1.2893 1.89597 1.9339 4.28484 1.9339 7.16674v.3967c0 .7233-.5864 1.3097-1.3097 1.3097h-4.7748c-.7234 0-1.3097-.5864-1.3097-1.3097v-.3967c0-1.5168-.3034-2.7302-.9101-3.64024-.5688-.94799-1.403-1.63053-2.5027-2.04765-1.0996-.45503-2.4079-.68255-3.9246-.68255-2.2752 0-3.9626.43608-5.0623 1.30822-1.0617.83423-1.5926 1.99072-1.5926 3.46962 0 .9859.2465 1.8201.7394 2.5027.5309.6825 1.3083 1.2513 2.3321 1.7064 1.0238.455 2.332.8531 3.9246 1.1944l1.3083.2844c2.8439.6067 5.3087 1.3841 7.3942 2.3321 2.1235.9479 3.773 2.1993 4.9485 3.754s1.7633 3.5454 1.7633 5.9723c0 2.4268-.6257 4.5693-1.877 6.4273-1.2135 1.8201-2.9578 3.2611-5.2329 4.3228-2.2373 1.0238-4.8916 1.5358-7.9631 1.5358z"/><path d="m70.1312 7.83907c-.7234.00142-1.3098.58779-1.3098 1.31113v30.3729c0 .7234.5864 1.3097 1.3098 1.3097h23.3174c.7233 0 1.3097-.5863 1.3097-1.3097v-4.206c0-.7234-.5864-1.3097-1.3097-1.3097h-17.1191v-9.8401h15.1852c.7233 0 1.3097-.5864 1.3097-1.3098v-4.206c0-.7233-.5864-1.3097-1.3097-1.3097h-15.1852v-8.43092c.0748-.54841.5258-.98404 1.1006-1.06789h15.6772c.7233 0 1.3097-.58639 1.3097-1.30974v-4.20602c0-.72334-.5864-1.30973-1.3097-1.30973h-15.4725c-.7225 0-1.3086.58516-1.3097 1.30772l-.0065 4.25935c0 .68772-.5875 1.24381-1.3139 1.24381-1.6272 0-3.2492.00751-4.8735.01069z"/><path d="m7.5065 25.1068c-.09193.6534-.68186 1.1564-1.39754 1.1564h-4.69897c-.0531 0-.1055.0027-.15707.0081-.696987.0298-1.25292.6042-1.25292 1.3085v11.9433c0 .7234.586388 1.3097 1.30973 1.3097h4.88857c.72335 0 1.30974-.5863 1.30974-1.3097v-.1917c.0072-.0548.01091-.1106.01091-.1672v-11.5663c0-.6818.60297-1.3261 1.29882-1.3261h7.56343c2.4268 0 4.5882-.4929 6.4842-1.4789 1.9339-1.0238 3.4506-2.4458 4.5503-4.2659 1.1376-1.858 1.7064-4.0194 1.7064-6.4842v-.7963c0-2.5027-.5499-4.66408-1.6495-6.48422-1.0618-1.82012-2.5596-3.22314-4.4935-4.20905-1.8959-1.02382-4.0952-1.53573-6.5979-1.53573h-15.07134c-.723392 0-1.30980112.58646-1.30972849 1.30986l.00158728 15.80934c.00007262.7233.58643921 1.3096 1.30973121 1.3096.82418 0 1.64819.0013 2.47247.0026h.00157c.82533.0012 1.65092.0025 2.4772.0025.68772 0 1.24381.5874 1.24381 1.3139v1.4659h.00078zm.00154-17.26381v10.36061c.03068.6568.5165 1.1857 1.13188 1.2427h7.00178c1.7823 0 3.2232-.4929 4.3229-1.4788 1.0996-.9859 1.6494-2.3321 1.6494-4.0385v-.5687c0-1.7064-.5498-3.0526-1.6494-4.03846-1.0997-.9859-2.5406-1.47885-4.3229-1.47885z"/></g></svg>

<svg width="95" height="42" viewBox="0 0 95 42" fill="none" xmlns="http://www.w3.org/2000/svg">
<g id="Logo">
<g id="Union">
<path d="M48.149 41.6292C45.0775 41.6292 42.3663 41.0793 40.0153 39.9797C37.6643 38.88 35.8252 37.3063 34.498 35.2587C33.1709 33.211 32.5073 30.7463 32.5073 27.8644V27.5815C32.5073 26.8582 33.0937 26.2718 33.817 26.2718H38.5918C39.3152 26.2718 39.9016 26.8582 39.9016 27.5815V27.8644C39.9016 30.2533 40.641 32.0545 42.1198 33.2679C43.5987 34.4434 45.6084 35.0312 48.149 35.0312C50.7275 35.0312 52.6425 34.5193 53.8938 33.4954C55.1831 32.4716 55.8277 31.1634 55.8277 29.5708C55.8277 28.4711 55.5054 27.58 54.8607 26.8975C54.254 26.2149 53.344 25.6651 52.1305 25.248C50.955 24.7929 49.5141 24.3758 47.8077 23.9966L46.4995 23.7122C43.7693 23.1055 41.4183 22.3471 39.4465 21.4371C37.5126 20.4891 36.0148 19.2567 34.9531 17.7399C33.9292 16.2232 33.4173 14.2514 33.4173 11.8245C33.4173 9.39768 33.9861 7.33108 35.1237 5.6247C36.2992 3.88041 37.9297 2.55324 40.0153 1.64317C42.1388 0.695185 44.6225 0.221191 47.4665 0.221191C50.3104 0.221191 52.8321 0.714145 55.0314 1.70005C57.2686 2.64803 59.0129 4.08897 60.2642 6.02286C61.5535 7.91883 62.1981 10.3077 62.1981 13.1896V13.5863C62.1981 14.3096 61.6117 14.896 60.8884 14.896H56.1136C55.3902 14.896 54.8039 14.3096 54.8039 13.5863V13.1896C54.8039 11.6728 54.5005 10.4594 53.8938 9.54936C53.325 8.60137 52.4908 7.91883 51.3911 7.50171C50.2915 7.04668 48.9832 6.81916 47.4665 6.81916C45.1913 6.81916 43.5039 7.25524 42.4042 8.12738C41.3425 8.96161 40.8116 10.1181 40.8116 11.597C40.8116 12.5829 41.0581 13.4171 41.551 14.0997C42.0819 14.7822 42.8593 15.351 43.8831 15.8061C44.9069 16.2611 46.2151 16.6592 47.8077 17.0005L49.116 17.2849C51.9599 17.8916 54.4247 18.669 56.5102 19.617C58.6337 20.5649 60.2832 21.8163 61.4587 23.371C62.6342 24.9257 63.222 26.9164 63.222 29.3433C63.222 31.7701 62.5963 33.9126 61.345 35.7706C60.1315 37.5907 58.3872 39.0317 56.1121 40.0934C53.8748 41.1172 51.2205 41.6292 48.149 41.6292Z" fill="#030C0C"/>
<path d="M70.1312 7.83907C69.4078 7.84049 68.8214 8.42686 68.8214 9.1502V39.5231C68.8214 40.2465 69.4078 40.8328 70.1312 40.8328H93.4486C94.1719 40.8328 94.7583 40.2465 94.7583 39.5231V35.3171C94.7583 34.5937 94.1719 34.0074 93.4486 34.0074H76.3295V24.1673H91.5147C92.238 24.1673 92.8244 23.5809 92.8244 22.8575V18.6515C92.8244 17.9282 92.238 17.3418 91.5147 17.3418H76.3295V8.91088C76.4043 8.36247 76.8553 7.92684 77.4301 7.84299H93.1073C93.8306 7.84299 94.417 7.2566 94.417 6.53325V2.32723C94.417 1.60389 93.8306 1.0175 93.1073 1.0175H77.6348C76.9123 1.0175 76.3262 1.60266 76.3251 2.32522L76.3186 6.58457C76.3186 7.27229 75.7311 7.82838 75.0047 7.82838C73.3775 7.82838 71.7555 7.83589 70.1312 7.83907Z" fill="#030C0C"/>
<path fillRule="evenodd" clipRule="evenodd" d="M7.5065 25.1068C7.41457 25.7602 6.82464 26.2632 6.10896 26.2632H1.40999C1.35689 26.2632 1.30449 26.2659 1.25292 26.2713C0.555933 26.3011 0 26.8755 0 27.5798V39.5231C0 40.2465 0.586388 40.8328 1.30973 40.8328H6.1983C6.92165 40.8328 7.50804 40.2465 7.50804 39.5231V39.3314C7.51524 39.2766 7.51895 39.2208 7.51895 39.1642V27.5979C7.51895 26.9161 8.12192 26.2718 8.81777 26.2718H16.3812C18.808 26.2718 20.9694 25.7789 22.8654 24.7929C24.7993 23.7691 26.316 22.3471 27.4157 20.527C28.5533 18.669 29.1221 16.5076 29.1221 14.0428V13.2465C29.1221 10.7438 28.5722 8.58242 27.4726 6.76228C26.4108 4.94216 24.913 3.53914 22.9791 2.55323C21.0832 1.52941 18.8839 1.0175 16.3812 1.0175H1.30986C0.586468 1.0175 5.88819e-05 1.60396 0.000131512 2.32736L0.00171879 18.1367C0.00179141 18.86 0.588158 19.4463 1.31145 19.4463C2.13563 19.4463 2.95964 19.4476 3.78392 19.4489H3.78549C4.61082 19.4501 5.43641 19.4514 6.26269 19.4514C6.95041 19.4514 7.5065 20.0388 7.5065 20.7653V22.2312H7.50728L7.5065 25.1068ZM7.50804 7.84299V18.2036C7.53872 18.8604 8.02454 19.3893 8.63992 19.4463H15.6417C17.424 19.4463 18.8649 18.9534 19.9646 17.9675C21.0642 16.9816 21.614 15.6354 21.614 13.929V13.3603C21.614 11.6539 21.0642 10.3077 19.9646 9.32184C18.8649 8.33594 17.424 7.84299 15.6417 7.84299H7.50804Z" fill="#030C0C"/>
</g>
</g>
</svg>
